X: 134
M:2/4
L:1/16
K:D
vdc|dAFA DFAd|fdAd FAdf|gfge fefd|edcB ABcA|
dAFA DFAd|fdAd FAdf|gabg fac"4"e|d2d2d2:|
|:vAG|FAdA FAdA|GBdB GBdB|Ac"4"ec Acec|dfaf gecA|

